X:147
T:Star Above the Garter
M:12/8
K:G
|Bc|:"G"d2B BAG "D"A3 ABA|"C"G2E c2B "D"BAG ABc|"G"d2 B BAG"D"A3 ABA|"C"GFE cGE "D"DED D3:|!
|"D"d2e fga gfe d2B|"C"G2B c2B "D"BAG A3|"D"d2e fga gfe d2B|"C"GAB cGE DED D3:|

